X:46
T:Seán Coughlan's Jigs No. 2
T:Christy Barry's Jigs No. 1
S:Kilkenny Tavern sessions, London
D:Brendan Begley & Gerry Bevan, 'Music for Sets';
D:Brendan Begley, 'Oíche go Maidean', CDBOB01;
D:Kevin Crawford, 'D flute Album', (second title).
N:A Munster tune. Seán Coughlan is from Árda Mór.
Z:ATB
R:jig
M:6/8
L:1/8
K:G
DFG BAG|A2B d2e|ged BGG|AFA BGE|
DFG BAG|A2B d2e|ged BGG|[1 AGF G2D/2E/2:|][2 AGF GBd|]
g2g gfg|a2g d2e|ged BGG|AFA BGE|
DFG BAG|A2B d2e|ged BGG|[1 AGF GBd:|][2 AGF G2D/2E/2|]
